X: 11082
T: Duck, The
R: jig
M: 6/8
K: Gmajor
"G"D2G "G"GAB|"C"A2G "G"GAB|"C"A2G "G"GAB|"C"A2G "C"ABB|
"G"D2G "G"GAB|"C"A2G "G"GAB|"C"A2G "G"BAG|"Em"E2D "Em"EGG:|
"G"D2d "G"B2A|"C"BGG "G"G2A|"C"BGG "G"G2A|"G"B2A "C"Bcd|
"G"D2d "C"B2A|"G"BGG "G"G2A|"D"B2A "D"BAG|"C"E2D "C"EGG:|
"D"D2F "D"FAB|"Em"A2F "Em"FAB|"Bm"A2F "Bm"FAB|"C"A2F "C"ABB|
"D"D2F "D"FAB|"Em"A2F "Em"FAB|"D"A2F "Bm"BAF|"C"E2D "C"EFF:|
"G"D2d "G"B2A|"C"Bcd "G"B2A|"G"BAd "G"B2A|"C"BAd "C"BAd|
"G"D2d "G"B2A|"C"Bcd "G"B2A|"G"BAd "Bm"BAF|"C"E2D "C"EFF:|

